svg/300/sharp/shuffle_on-fill.svg

<svg xmlns="http://www.w3.org/2000/svg" width="48" height="48" viewBox="0 -960 960 960"><path d="M60.002-60.002v-840.612h840.612v840.613H60.001ZM576.385-180h203.614v-201.845h-45.384v124.077L565.539-425.615 533.924-393l168.23 167.615H576.385v45.384Zm-364.384 0 522.614-522v123.846h45.384v-201.845H576.385v45.384h126.231L180.001-212.616l32 32.615Zm179.537-356.846 32.615-32.23-211.922-210.922-32.23 32.23 211.537 210.922Z"/></svg>

<svg xmlns="http://www.w3.org/2000/svg" width="48" height="48" viewBox="0 -960 960 960"><path d="M60-60v-840.61h840.61V-60H60Zm516.38-120H780v-201.85h-45.39v124.08L565.54-425.61 533.92-393l168.23 167.61H576.38V-180ZM212-180l522.61-522v123.85H780V-780H576.38v45.39h126.24L180-212.62 212-180Zm179.54-356.85 32.61-32.23L212.23-780 180-747.77l211.54 210.92Z"/></svg>
